X: 23573
T: Lighthouse Keeper's
R: waltz
M: 3/4
K: Gmajor
Bc|d2>B2 d2|c2 B2 A2|G2 B2 d2|e2>f2 g2|d2>B2 G2|e2>d2 c2|c2<B2 G2|A4 Bc|
d2>B2 d2|c2 B2 A2|G2>B2 d2|e2>f2 g2|d2<B2 G2|c2<A2 F2|G4:|
gf|e2>d2 c2|B2<d2 B2|A2>B2 c2|B2 g2 f2|e2>d2 c2|B2<g2 fe|d2>B2 G2|A4 gf|
e2>f2 g2|d2>f2 g2|e2>d2 c2|B2<d2 D2|E2<c2 B2|A2>G2 F2|G4:|

